; generated by Slic3r 1.3.0 on 2023-03-26 at 21:21:31

; external perimeters extrusion width = 0.55mm (7.28mm^3/s)
; perimeters extrusion width = 0.70mm (11.44mm^3/s)
; infill extrusion width = 0.63mm (13.45mm^3/s)
; solid infill extrusion width = 0.70mm (3.81mm^3/s)
; top infill extrusion width = 0.70mm (2.86mm^3/s)

M107
M104 S200 ; set temperature
G28 ; home all axes
G1 Z5 F5000 ; lift nozzle

; Filament gcode

M109 S200 ; set temperature and wait for it to be reached
G21 ; set units to millimeters
G90 ; use absolute coordinates
M82 ; use absolute distances for extrusion
G92 E0
G1 Z0.350 F7800.000
G1 E-2.00000 F2400.00000
G92 E0
G1 X33.042 Y10.072 F7800.000
G1 E2.00000 F2400.00000
G1 F1800
G1 X33.883 Y8.625 E2.04648
G1 X34.360 Y8.004 E2.06825
G1 X35.570 Y6.793 E2.11580
G1 X36.192 Y6.316 E2.13758
G1 X37.675 Y5.460 E2.18514
G1 X38.399 Y5.160 E2.20691
G1 X40.053 Y4.716 E2.25448
G1 X40.830 Y4.614 E2.27624
G1 X41.686 Y4.558 E2.30008
G1 X202.049 Y4.558 E6.75459
G1 X202.905 Y4.614 E6.77842
G1 X203.681 Y4.716 E6.80019
G1 X205.335 Y5.159 E6.84773
G1 X206.059 Y5.460 E6.86952
G1 X207.542 Y6.315 E6.91707
G1 X208.164 Y6.793 E6.93885
G1 X209.375 Y8.004 E6.98643
G1 X209.852 Y8.625 E7.00818
G1 X210.707 Y10.106 E7.05567
G1 X211.008 Y10.832 E7.07751
G1 X211.451 Y12.484 E7.12502
G1 X211.553 Y13.263 E7.14684
G1 X211.610 Y14.119 E7.17068
G1 X211.610 Y145.242 E10.81298
G1 X211.553 Y146.098 E10.83682
G1 X211.451 Y146.875 E10.85857
G1 X211.008 Y148.529 E10.90615
G1 X210.708 Y149.253 E10.92790
G1 X209.853 Y150.734 E10.97541
G1 X209.375 Y151.357 E10.99723
G1 X208.164 Y152.568 E11.04481
G1 X207.543 Y153.045 E11.06657
G1 X206.061 Y153.901 E11.11410
G1 X205.336 Y154.201 E11.13590
G1 X204.330 Y154.525 E11.16525
G1 X31.625 Y195.233 E16.09407
G1 X30.407 Y195.401 E16.12824
G1 X29.624 Y195.436 E16.14999
G1 X27.918 Y195.286 E16.19757
G1 X27.153 Y195.117 E16.21932
G1 X25.544 Y194.531 E16.26690
G1 X24.849 Y194.170 E16.28865
G1 X23.446 Y193.188 E16.33623
G1 X22.869 Y192.658 E16.35798
G1 X21.768 Y191.347 E16.40553
G1 X21.347 Y190.686 E16.42732
G1 X20.934 Y189.934 E16.45116
G1 X-10.725 Y122.054 E18.53170
G1 X-11.036 Y121.254 E18.55553
G1 X-11.272 Y120.507 E18.57729
G1 X-11.569 Y118.821 E18.62485
G1 X-11.603 Y118.038 E18.64662
G1 X-11.454 Y116.332 E18.69418
G1 X-11.285 Y115.567 E18.71595
G1 X-10.926 Y114.440 E18.74882
G1 X33.013 Y10.141 E21.89260
G1 E19.89260 F2400.00000
G92 E0
G1 X30.954 Y180.386 F7800.000
G1 E2.00000 F2400.00000
G1 F1800
G1 X31.831 Y180.488 E2.02077
G1 X32.605 Y180.808 E2.04048
G1 X33.268 Y181.317 E2.06013
G1 X33.777 Y181.981 E2.07979
G1 X34.078 Y182.706 E2.09825
G1 X34.207 Y183.580 E2.11902
G1 X34.097 Y184.411 E2.13873
G1 X33.777 Y185.183 E2.15838
G1 X33.268 Y185.846 E2.17804
G1 X32.605 Y186.355 E2.19770
G1 X31.833 Y186.675 E2.21736
G1 X31.004 Y186.784 E2.23701
G1 X30.175 Y186.675 E2.25667
G1 X29.403 Y186.355 E2.27633
G1 X28.740 Y185.846 E2.29599
G1 X28.231 Y185.183 E2.31564
G1 X27.911 Y184.411 E2.33530
G1 X27.802 Y183.582 E2.35496
G1 X27.911 Y182.753 E2.37462
G1 X28.231 Y181.981 E2.39427
G1 X28.740 Y181.317 E2.41393
G1 X29.403 Y180.808 E2.43359
G1 X30.175 Y180.489 E2.45325
G1 X30.879 Y180.396 E2.46994
G1 X30.954 Y180.386 F7800.000
G1 E0.46994 F2400.00000
G92 E0
G1 X196.725 Y144.618 F7800.000
G1 E2.00000 F2400.00000
G1 F1800
G1 X196.596 Y143.744 E2.02077
G1 X196.705 Y142.913 E2.04048
G1 X197.025 Y142.141 E2.06013
G1 X197.534 Y141.477 E2.07979
G1 X198.197 Y140.968 E2.09945
G1 X198.970 Y140.648 E2.11911
G1 X199.748 Y140.546 E2.13757
G1 X200.625 Y140.648 E2.15833
G1 X201.400 Y140.968 E2.17804
G1 X202.063 Y141.477 E2.19770
G1 X202.572 Y142.141 E2.21736
G1 X202.872 Y142.866 E2.23582
G1 X203.001 Y143.740 E2.25658
G1 X202.892 Y144.571 E2.27629
G1 X202.572 Y145.343 E2.29595
G1 X202.063 Y146.006 E2.31561
G1 X201.400 Y146.515 E2.33526
G1 X200.674 Y146.815 E2.35372
G1 X199.801 Y146.944 E2.37449
G1 X198.970 Y146.835 E2.39420
G1 X198.197 Y146.515 E2.41386
G1 X197.534 Y146.006 E2.43351
G1 X197.025 Y145.343 E2.45317
G1 X196.754 Y144.687 E2.46987
G1 X196.725 Y144.618 F7800.000
G1 E0.46987 F2400.00000
G92 E0
G1 X120.149 Y143.742 F7800.000
G1 E2.00000 F2400.00000
G1 F1800
G1 X120.023 Y144.706 E2.02701
G1 X119.671 Y145.553 E2.05249
G1 X119.063 Y146.372 E2.08081
G1 X118.287 Y146.967 E2.10800
G1 X117.440 Y147.319 E2.13348
G1 X116.431 Y147.467 E2.16180
G1 X115.461 Y147.340 E2.18899
G1 X114.562 Y146.967 E2.21600
G1 X113.791 Y146.376 E2.24301
G1 X113.199 Y145.604 E2.27002
G1 X112.827 Y144.706 E2.29703
G1 X112.700 Y143.742 E2.32404
G1 X112.827 Y142.778 E2.35105
G1 X113.199 Y141.879 E2.37806
G1 X113.791 Y141.108 E2.40507
G1 X114.562 Y140.516 E2.43208
G1 X115.461 Y140.144 E2.45909
G1 X116.370 Y140.024 E2.48457
G1 X117.383 Y140.141 E2.51289
G1 X118.287 Y140.516 E2.54007
G1 X119.058 Y141.108 E2.56708
G1 X119.650 Y141.879 E2.59409
G1 X120.023 Y142.778 E2.62110
G1 X120.140 Y143.667 E2.64603
G1 X119.627 Y143.742 F7800.000
G1 F1800
G1 X119.518 Y144.571 E2.66569
G1 X119.217 Y145.296 E2.68415
G1 X118.691 Y146.005 E2.70492
G1 X118.026 Y146.515 E2.72462
G1 X117.301 Y146.815 E2.74309
G1 X116.427 Y146.944 E2.76385
G1 X115.596 Y146.835 E2.78356
G1 X114.824 Y146.515 E2.80322
G1 X114.160 Y146.006 E2.82288
G1 X113.651 Y145.343 E2.84253
G1 X113.331 Y144.571 E2.86219
G1 X113.222 Y143.742 E2.88185
G1 X113.331 Y142.913 E2.90151
G1 X113.651 Y142.141 E2.92116
G1 X114.160 Y141.477 E2.94082
G1 X114.824 Y140.968 E2.96048
G1 X115.596 Y140.648 E2.98013
G1 X116.374 Y140.546 E2.99860
G1 X117.251 Y140.648 E3.01936
G1 X118.026 Y140.968 E3.03907
G1 X118.689 Y141.477 E3.05873
G1 X119.198 Y142.141 E3.07839
G1 X119.518 Y142.913 E3.09804
G1 X119.617 Y143.667 E3.11594
G1 X119.627 Y143.742 F7800.000
G1 E1.11594 F2400.00000
G92 E0
G1 X203.010 Y146.544 F7800.000
G1 E2.00000 F2400.00000
G1 F1800
G1 X203.514 Y145.887 E2.02299
G1 X203.637 Y145.591 E2.03189
G1 X203.627 Y145.665 E2.03396
G1 X203.464 Y146.059 E2.04581
G1 X203.206 Y146.395 E2.05758
G1 X203.070 Y146.498 E2.06232
G1 E0.06232 F2400.00000
G92 E0
G1 X199.805 Y36.545 F7800.000
G1 E2.00000 F2400.00000
G1 F1800
G1 X198.835 Y36.417 E2.02718
G1 X197.936 Y36.045 E2.05419
G1 X197.165 Y35.453 E2.08120
G1 X196.573 Y34.682 E2.10821
G1 X196.222 Y33.834 E2.13370
G1 X196.073 Y32.825 E2.16202
G1 X196.201 Y31.855 E2.18920
G1 X196.573 Y30.957 E2.21621
G1 X197.165 Y30.185 E2.24322
G1 X197.936 Y29.593 E2.27023
G1 X198.835 Y29.221 E2.29724
G1 X199.744 Y29.102 E2.32273
G1 X200.757 Y29.219 E2.35105
G1 X201.661 Y29.593 E2.37823
G1 X202.432 Y30.185 E2.40524
G1 X203.024 Y30.957 E2.43225
G1 X203.375 Y31.804 E2.45773
G1 X203.524 Y32.813 E2.48605
G1 X203.396 Y33.783 E2.51324
G1 X203.024 Y34.682 E2.54025
G1 X202.432 Y35.453 E2.56726
G1 X201.661 Y36.045 E2.59427
G1 X200.813 Y36.396 E2.61975
G1 X199.879 Y36.534 E2.64599
G1 X199.801 Y36.022 F7800.000
G1 F1800
G1 X198.970 Y35.912 E2.66570
G1 X198.197 Y35.592 E2.68535
G1 X197.534 Y35.084 E2.70501
G1 X197.025 Y34.420 E2.72467
G1 X196.725 Y33.695 E2.74313
G1 X196.596 Y32.821 E2.76390
G1 X196.705 Y31.990 E2.78361
G1 X197.025 Y31.218 E2.80326
G1 X197.534 Y30.555 E2.82292
G1 X198.197 Y30.046 E2.84258
G1 X198.970 Y29.726 E2.86224
G1 X199.748 Y29.623 E2.88070
G1 X200.625 Y29.725 E2.90146
G1 X201.400 Y30.046 E2.92117
G1 X202.063 Y30.555 E2.94083
G1 X202.572 Y31.218 E2.96049
G1 X202.872 Y31.943 E2.97895
G1 X203.001 Y32.817 E2.99971
G1 X202.892 Y33.648 E3.01942
G1 X202.572 Y34.420 E3.03908
G1 X202.063 Y35.084 E3.05874
G1 X201.400 Y35.592 E3.07839
G1 X200.674 Y35.893 E3.09685
G1 X199.875 Y36.011 E3.11586
G1 X199.801 Y36.022 F7800.000
G1 E1.11586 F2400.00000
G92 E0
G1 X199.799 Y21.344 F7800.000
G1 E2.00000 F2400.00000
G1 F1800
G1 X198.835 Y21.217 E2.02701
G1 X197.936 Y20.845 E2.05402
G1 X197.165 Y20.253 E2.08103
G1 X196.573 Y19.482 E2.10804
G1 X196.222 Y18.634 E2.13352
G1 X196.073 Y17.625 E2.16184
G1 X196.201 Y16.655 E2.18903
G1 X196.573 Y15.757 E2.21604
G1 X197.165 Y14.985 E2.24305
G1 X197.936 Y14.393 E2.27006
G1 X198.835 Y14.021 E2.29707
G1 X199.744 Y13.902 E2.32255
G1 X200.757 Y14.019 E2.35087
G1 X201.661 Y14.393 E2.37806
G1 X202.432 Y14.985 E2.40507
G1 X203.024 Y15.757 E2.43208
G1 X203.375 Y16.604 E2.45756
G1 X203.524 Y17.613 E2.48588
G1 X203.396 Y18.583 E2.51306
G1 X203.024 Y19.482 E2.54007
G1 X202.432 Y20.253 E2.56708
G1 X201.661 Y20.845 E2.59409
G1 X200.763 Y21.217 E2.62110
G1 X199.873 Y21.334 E2.64603
G1 X199.799 Y20.822 F7800.000
G1 F1800
G1 X198.970 Y20.712 E2.66569
G1 X198.197 Y20.392 E2.68535
G1 X197.534 Y19.884 E2.70500
G1 X197.025 Y19.220 E2.72466
G1 X196.725 Y18.495 E2.74312
G1 X196.596 Y17.621 E2.76389
G1 X196.705 Y16.790 E2.78360
G1 X197.025 Y16.018 E2.80325
G1 X197.534 Y15.355 E2.82291
G1 X198.197 Y14.846 E2.84257
G1 X198.970 Y14.526 E2.86223
G1 X199.748 Y14.423 E2.88069
G1 X200.625 Y14.525 E2.90145
G1 X201.400 Y14.846 E2.92116
G1 X202.063 Y15.355 E2.94082
G1 X202.572 Y16.018 E2.96048
G1 X202.872 Y16.743 E2.97894
G1 X203.001 Y17.617 E2.99970
G1 X202.892 Y18.448 E3.01941
G1 X202.572 Y19.220 E3.03907
G1 X202.063 Y19.884 E3.05873
G1 X201.400 Y20.392 E3.07839
G1 X200.627 Y20.712 E3.09804
G1 X199.873 Y20.812 E3.11594
G1 X199.799 Y20.822 F7800.000
G1 E1.11594 F2400.00000
G92 E0
G1 X47.652 Y96.898 F7800.000
G1 E2.00000 F2400.00000
G1 F1800
G1 X48.081 Y97.932 E2.03111
G1 X48.228 Y99.053 E2.06251
G1 X48.080 Y100.155 E2.09340
G1 X47.652 Y101.188 E2.12446
G1 X46.970 Y102.077 E2.15557
G1 X46.081 Y102.759 E2.18669
G1 X45.047 Y103.187 E2.21780
G1 X43.936 Y103.334 E2.24891
G1 X42.826 Y103.187 E2.28003
G1 X41.791 Y102.759 E2.31114
G1 X40.902 Y102.077 E2.34225
G1 X40.220 Y101.188 E2.37337
G1 X39.792 Y100.153 E2.40448
G1 X39.644 Y99.033 E2.43587
G1 X39.792 Y97.931 E2.46677
G1 X40.220 Y96.898 E2.49783
G1 X40.902 Y96.009 E2.52894
G1 X41.791 Y95.327 E2.56005
G1 X42.826 Y94.898 E2.59117
G1 X43.877 Y94.760 E2.62063
G1 X45.037 Y94.894 E2.65305
G1 X46.081 Y95.327 E2.68447
G1 X46.970 Y96.009 E2.71558
G1 X47.606 Y96.838 E2.74461
G1 X47.162 Y97.181 F7800.000
G1 F1800
G1 X47.534 Y98.079 E2.77162
G1 X47.662 Y99.052 E2.79889
G1 X47.534 Y100.008 E2.82568
G1 X47.162 Y100.905 E2.85266
G1 X46.570 Y101.677 E2.87967
G1 X45.798 Y102.269 E2.90668
G1 X44.900 Y102.641 E2.93369
G1 X43.936 Y102.768 E2.96070
G1 X42.972 Y102.641 E2.98771
G1 X42.074 Y102.269 E3.01472
G1 X41.302 Y101.677 E3.04173
G1 X40.710 Y100.905 E3.06874
G1 X40.338 Y100.007 E3.09575
G1 X40.210 Y99.034 E3.12302
G1 X40.339 Y98.078 E3.14981
G1 X40.710 Y97.181 E3.17679
G1 X41.302 Y96.409 E3.20380
G1 X42.074 Y95.817 E3.23081
G1 X42.972 Y95.445 E3.25782
G1 X43.882 Y95.325 E3.28330
G1 X44.894 Y95.443 E3.31162
G1 X45.798 Y95.817 E3.33880
G1 X46.570 Y96.409 E3.36581
G1 X47.116 Y97.121 E3.39074
G1 X46.709 Y97.442 F7800.000
G1 F1800
G1 X47.029 Y98.214 E3.41040
G1 X47.140 Y99.051 E3.43026
G1 X47.029 Y99.872 E3.44973
G1 X46.709 Y100.644 E3.46938
G1 X46.201 Y101.307 E3.48904
G1 X45.537 Y101.816 E3.50869
G1 X44.765 Y102.136 E3.52835
G1 X43.936 Y102.245 E3.54801
G1 X43.107 Y102.136 E3.56767
G1 X42.335 Y101.816 E3.58732
G1 X41.672 Y101.307 E3.60698
G1 X41.163 Y100.644 E3.62664
G1 X40.843 Y99.872 E3.64629
G1 X40.733 Y99.034 E3.66615
G1 X40.843 Y98.214 E3.68563
G1 X41.163 Y97.442 E3.70527
G1 X41.672 Y96.778 E3.72493
G1 X42.335 Y96.270 E3.74459
G1 X43.107 Y95.950 E3.76425
G1 X43.886 Y95.847 E3.78271
G1 X44.763 Y95.949 E3.80347
G1 X45.537 Y96.270 E3.82318
G1 X46.201 Y96.778 E3.84284
G1 X46.664 Y97.382 E3.86073
G1 X46.709 Y97.442 F7800.000
G1 E1.86073 F2400.00000
G92 E0
G1 X0.891 Y114.820 F7800.000
G1 E2.00000 F2400.00000
G1 F1800
G1 X37.596 Y97.701 E3.12504
G1 X38.372 Y97.225 E3.15032
G1 X39.077 Y96.533 E3.17776
G1 X39.607 Y95.700 E3.20519
G1 X39.937 Y94.769 E3.23263
G1 X40.040 Y93.864 E3.25791
G1 X40.040 Y34.529 E4.90611
G1 X40.220 Y34.964 E4.91920
G1 X40.902 Y35.853 E4.95031
G1 X41.791 Y36.535 E4.98142
G1 X42.826 Y36.964 E5.01254
G1 X43.936 Y37.110 E5.04365
G1 X45.047 Y36.964 E5.07476
G1 X46.081 Y36.535 E5.10588
G1 X46.970 Y35.853 E5.13699
G1 X47.652 Y34.964 E5.16810
G1 X48.081 Y33.930 E5.19922
G1 X48.227 Y32.819 E5.23033
G1 X48.081 Y31.709 E5.26144
G1 X47.652 Y30.674 E5.29256
G1 X46.970 Y29.785 E5.32367
G1 X46.081 Y29.103 E5.35478
G1 X45.037 Y28.671 E5.38619
G1 X43.877 Y28.536 E5.41862
G1 X42.826 Y28.675 E5.44808
G1 X41.791 Y29.103 E5.47919
G1 X40.902 Y29.785 E5.51031
G1 X40.220 Y30.674 E5.54142
G1 X40.040 Y31.109 E5.55451
G1 X40.040 Y19.329 E5.88172
G1 X40.220 Y19.764 E5.89481
G1 X40.902 Y20.653 E5.92592
G1 X41.791 Y21.335 E5.95703
G1 X42.826 Y21.764 E5.98815
G1 X43.936 Y21.910 E6.01926
G1 X45.047 Y21.764 E6.05037
G1 X46.081 Y21.335 E6.08149
G1 X46.970 Y20.653 E6.11260
G1 X47.652 Y19.764 E6.14371
G1 X48.081 Y18.730 E6.17483
G1 X48.227 Y17.619 E6.20594
G1 X48.081 Y16.509 E6.23705
G1 X47.652 Y15.474 E6.26817
G1 X46.970 Y14.585 E6.29928
G1 X46.081 Y13.903 E6.33039
G1 X45.037 Y13.471 E6.36180
G1 X43.877 Y13.336 E6.39423
G1 X42.826 Y13.475 E6.42369
G1 X41.791 Y13.903 E6.45480
G1 X40.902 Y14.585 E6.48592
G1 X40.220 Y15.474 E6.51703
G1 X40.040 Y15.909 E6.53011
G1 X40.040 Y14.211 E6.57729
G1 X40.111 Y13.686 E6.59199
G1 X40.271 Y13.302 E6.60355
G1 X40.530 Y12.963 E6.61540
G1 X40.869 Y12.704 E6.62725
G1 X41.263 Y12.540 E6.63910
G1 X41.775 Y12.473 E6.65344
G1 X201.973 Y12.475 E11.10340
G1 X202.472 Y12.540 E11.11736
G1 X202.866 Y12.704 E11.12921
G1 X203.204 Y12.963 E11.14106
G1 X203.464 Y13.302 E11.15291
G1 X203.627 Y13.696 E11.16477
G1 X203.695 Y14.208 E11.17910
G1 X203.695 Y15.909 E11.22636
G1 X203.514 Y15.474 E11.23944
G1 X202.833 Y14.585 E11.27056
G1 X201.944 Y13.903 E11.30167
G1 X200.899 Y13.471 E11.33308
G1 X199.740 Y13.336 E11.36551
G1 X198.688 Y13.475 E11.39497
G1 X197.653 Y13.903 E11.42608
G1 X196.765 Y14.585 E11.45719
G1 X196.083 Y15.474 E11.48831
G1 X195.654 Y16.509 E11.51942
G1 X195.507 Y17.630 E11.55083
G1 X195.677 Y18.785 E11.58326
G1 X196.083 Y19.764 E11.61272
G1 X196.765 Y20.653 E11.64383
G1 X197.653 Y21.335 E11.67494
G1 X198.688 Y21.764 E11.70606
G1 X199.799 Y21.910 E11.73717
G1 X200.909 Y21.764 E11.76828
G1 X201.944 Y21.335 E11.79940
G1 X202.833 Y20.653 E11.83051
G1 X203.514 Y19.764 E11.86162
G1 X203.695 Y19.329 E11.87471
G1 X203.695 Y31.109 E12.20193
G1 X203.514 Y30.674 E12.21501
G1 X202.833 Y29.785 E12.24612
G1 X201.944 Y29.103 E12.27724
G1 X200.899 Y28.671 E12.30865
G1 X199.740 Y28.536 E12.34107
G1 X198.688 Y28.675 E12.37054
G1 X197.653 Y29.103 E12.40165
G1 X196.765 Y29.785 E12.43276
G1 X196.083 Y30.674 E12.46388
G1 X195.654 Y31.709 E12.49499
G1 X195.507 Y32.830 E12.52640
G1 X195.677 Y33.985 E12.55882
G1 X196.083 Y34.964 E12.58829
G1 X196.765 Y35.853 E12.61940
G1 X197.653 Y36.535 E12.65051
G1 X198.688 Y36.964 E12.68163
G1 X199.809 Y37.111 E12.71304
G1 X200.964 Y36.941 E12.74546
G1 X201.944 Y36.535 E12.77492
G1 X202.833 Y35.853 E12.80604
G1 X203.514 Y34.964 E12.83715
G1 X203.695 Y34.529 E12.85024
G1 X203.695 Y142.032 E15.83641
G1 X203.514 Y141.596 E15.84950
G1 X202.833 Y140.708 E15.88061
G1 X201.944 Y140.026 E15.91172
G1 X200.899 Y139.593 E15.94314
G1 X199.740 Y139.459 E15.97556
G1 X198.688 Y139.597 E16.00502
G1 X197.653 Y140.026 E16.03613
G1 X196.765 Y140.708 E16.06725
G1 X196.083 Y141.596 E16.09836
G1 X195.654 Y142.631 E16.12947
G1 X195.507 Y143.752 E16.16089
G1 X195.677 Y144.907 E16.19331
G1 X196.083 Y145.887 E16.22277
G1 X196.765 Y146.776 E16.25388
G1 X196.911 Y146.888 E16.25900
G1 X119.312 Y146.888 E18.41451
G1 X119.467 Y146.769 E18.41993
G1 X120.163 Y145.832 E18.45235
G1 X120.569 Y144.852 E18.48181
G1 X120.715 Y143.742 E18.51293
G1 X120.569 Y142.631 E18.54404
G1 X120.140 Y141.596 E18.57515
G1 X119.459 Y140.708 E18.60626
G1 X118.570 Y140.026 E18.63738
G1 X117.525 Y139.593 E18.66879
G1 X116.366 Y139.459 E18.70121
