; generated by Slic3r 1.3.0 on 2023-03-26 at 21:27:15

; external perimeters extrusion width = 0.55mm (7.28mm^3/s)
; perimeters extrusion width = 0.70mm (11.44mm^3/s)
; infill extrusion width = 0.63mm (13.45mm^3/s)
; solid infill extrusion width = 0.70mm (3.81mm^3/s)
; top infill extrusion width = 0.70mm (2.86mm^3/s)

M107
M104 S200 ; set temperature
G28 ; home all axes
G1 Z5 F5000 ; lift nozzle

; Filament gcode

M109 S200 ; set temperature and wait for it to be reached
G21 ; set units to millimeters
G90 ; use absolute coordinates
M82 ; use absolute distances for extrusion
G92 E0
G1 Z0.350 F7800.000
G1 E-2.00000 F2400.00000
G92 E0
G1 X20.934 Y10.066 F7800.000
G1 E2.00000 F2400.00000
G1 F1800
G1 X21.347 Y9.314 E2.02384
G1 X21.768 Y8.654 E2.04560
G1 X22.869 Y7.342 E2.09316
G1 X23.446 Y6.813 E2.11492
G1 X24.849 Y5.830 E2.16249
G1 X25.544 Y5.469 E2.18426
G1 X27.153 Y4.883 E2.23183
G1 X27.918 Y4.714 E2.25359
G1 X29.624 Y4.564 E2.30117
G1 X30.407 Y4.599 E2.32292
G1 X31.625 Y4.767 E2.35709
G1 X204.330 Y45.475 E7.28591
G1 X205.334 Y45.798 E7.31522
G1 X206.059 Y46.099 E7.33702
G1 X207.542 Y46.954 E7.38457
G1 X208.164 Y47.432 E7.40635
G1 X209.375 Y48.643 E7.45393
G1 X209.852 Y49.264 E7.47568
G1 X210.707 Y50.745 E7.52317
G1 X211.008 Y51.471 E7.54501
G1 X211.451 Y53.123 E7.59252
G1 X211.553 Y53.902 E7.61434
G1 X211.610 Y54.758 E7.63818
G1 X211.610 Y185.881 E11.28047
G1 X211.553 Y186.737 E11.30431
G1 X211.451 Y187.514 E11.32607
G1 X211.008 Y189.168 E11.37365
G1 X210.708 Y189.892 E11.39540
G1 X209.853 Y191.373 E11.44291
G1 X209.375 Y191.996 E11.46473
G1 X208.164 Y193.207 E11.51231
G1 X207.543 Y193.684 E11.53406
G1 X206.061 Y194.540 E11.58159
G1 X205.336 Y194.840 E11.60339
G1 X203.683 Y195.283 E11.65092
G1 X202.905 Y195.386 E11.67273
G1 X202.049 Y195.442 E11.69656
G1 X41.686 Y195.442 E16.15108
G1 X40.830 Y195.386 E16.17492
G1 X40.053 Y195.284 E16.19667
G1 X38.399 Y194.840 E16.24425
G1 X37.675 Y194.541 E16.26600
G1 X36.193 Y193.685 E16.31354
G1 X35.571 Y193.207 E16.33534
G1 X34.360 Y191.996 E16.38291
G1 X33.883 Y191.375 E16.40466
G1 X33.042 Y189.928 E16.45116
G1 X-10.926 Y85.560 E19.59701
G1 X-11.285 Y84.433 E19.62988
G1 X-11.454 Y83.668 E19.65164
G1 X-11.603 Y81.962 E19.69920
G1 X-11.569 Y81.179 E19.72097
G1 X-11.272 Y79.493 E19.76854
G1 X-11.036 Y78.746 E19.79030
G1 X-10.725 Y77.946 E19.81414
G1 X20.902 Y10.134 E21.89260
G1 E19.89260 F2400.00000
G92 E0
G1 X196.705 Y55.429 F7800.000
G1 E2.00000 F2400.00000
G1 F1800
G1 X197.025 Y54.657 E2.01966
G1 X197.534 Y53.994 E2.03931
G1 X198.197 Y53.485 E2.05897
G1 X198.970 Y53.165 E2.07863
G1 X199.748 Y53.063 E2.09709
G1 X200.625 Y53.164 E2.11786
G1 X201.400 Y53.485 E2.13757
G1 X202.063 Y53.994 E2.15722
G1 X202.572 Y54.657 E2.17688
G1 X202.872 Y55.382 E2.19534
G1 X203.001 Y56.256 E2.21611
G1 X202.892 Y57.087 E2.23582
G1 X202.572 Y57.859 E2.25547
G1 X202.063 Y58.523 E2.27513
G1 X201.400 Y59.032 E2.29479
G1 X200.674 Y59.332 E2.31325
G1 X199.801 Y59.461 E2.33402
G1 X198.970 Y59.352 E2.35372
G1 X198.197 Y59.032 E2.37338
G1 X197.534 Y58.523 E2.39304
G1 X197.025 Y57.860 E2.41270
G1 X196.725 Y57.134 E2.43116
G1 X196.596 Y56.260 E2.45192
G1 X196.696 Y55.504 E2.46987
G1 X196.705 Y55.429 F7800.000
G1 E0.46987 F2400.00000
G92 E0
G1 X34.097 Y17.247 F7800.000
G1 E2.00000 F2400.00000
G1 F1800
G1 X33.777 Y18.019 E2.01966
G1 X33.268 Y18.683 E2.03931
G1 X32.605 Y19.192 E2.05897
G1 X31.833 Y19.511 E2.07863
G1 X31.004 Y19.621 E2.09829
G1 X30.175 Y19.511 E2.11795
G1 X29.450 Y19.211 E2.13641
G1 X28.741 Y18.684 E2.15717
G1 X28.231 Y18.019 E2.17688
G1 X27.911 Y17.247 E2.19654
G1 X27.802 Y16.418 E2.21620
G1 X27.911 Y15.589 E2.23585
G1 X28.231 Y14.817 E2.25551
G1 X28.740 Y14.154 E2.27517
G1 X29.403 Y13.645 E2.29483
G1 X30.175 Y13.325 E2.31448
G1 X30.954 Y13.222 E2.33294
G1 X31.831 Y13.324 E2.35371
G1 X32.605 Y13.645 E2.37342
G1 X33.268 Y14.154 E2.39308
G1 X33.777 Y14.817 E2.41273
G1 X34.097 Y15.589 E2.43239
G1 X34.206 Y16.418 E2.45205
G1 X34.107 Y17.173 E2.46994
G1 X34.097 Y17.247 F7800.000
G1 E0.46994 F2400.00000
G92 E0
G1 X43.882 Y178.663 F7800.000
G1 E2.00000 F2400.00000
G1 F1800
G1 X44.894 Y178.781 E2.02832
G1 X45.798 Y179.155 E2.05551
G1 X46.570 Y179.747 E2.08252
G1 X47.162 Y180.518 E2.10953
G1 X47.513 Y181.366 E2.13501
G1 X47.662 Y182.375 E2.16333
G1 X47.534 Y183.345 E2.19051
G1 X47.162 Y184.243 E2.21752
G1 X46.570 Y185.015 E2.24453
G1 X45.798 Y185.607 E2.27154
G1 X44.900 Y185.979 E2.29855
G1 X43.936 Y186.106 E2.32556
G1 X42.972 Y185.979 E2.35257
G1 X42.074 Y185.607 E2.37958
G1 X41.302 Y185.015 E2.40659
G1 X40.710 Y184.243 E2.43360
G1 X40.359 Y183.396 E2.45909
G1 X40.210 Y182.387 E2.48741
G1 X40.338 Y181.417 E2.51459
G1 X40.710 Y180.518 E2.54160
G1 X41.302 Y179.747 E2.56861
G1 X42.074 Y179.155 E2.59562
G1 X42.972 Y178.783 E2.62263
G1 X43.807 Y178.673 E2.64603
G1 X43.886 Y179.185 F7800.000
G1 F1800
G1 X44.763 Y179.287 E2.66680
G1 X45.537 Y179.608 E2.68651
G1 X46.201 Y180.116 E2.70616
G1 X46.709 Y180.780 E2.72582
G1 X47.010 Y181.505 E2.74428
G1 X47.139 Y182.379 E2.76505
G1 X47.029 Y183.210 E2.78476
G1 X46.709 Y183.982 E2.80441
G1 X46.201 Y184.645 E2.82407
G1 X45.537 Y185.154 E2.84373
G1 X44.765 Y185.474 E2.86339
G1 X43.936 Y185.583 E2.88304
G1 X43.107 Y185.474 E2.90270
G1 X42.335 Y185.154 E2.92236
G1 X41.672 Y184.645 E2.94202
G1 X41.163 Y183.982 E2.96167
G1 X40.862 Y183.257 E2.98014
G1 X40.733 Y182.383 E3.00090
G1 X40.843 Y181.552 E3.02061
G1 X41.163 Y180.780 E3.04027
G1 X41.672 Y180.116 E3.05993
G1 X42.335 Y179.608 E3.07958
G1 X43.107 Y179.288 E3.09924
G1 X43.811 Y179.195 E3.11594
G1 X43.886 Y179.185 F7800.000
G1 E1.11594 F2400.00000
G92 E0
G1 X43.942 Y170.906 F7800.000
G1 E2.00000 F2400.00000
G1 F1800
G1 X42.972 Y170.779 E2.02718
G1 X42.074 Y170.407 E2.05419
G1 X41.302 Y169.815 E2.08120
G1 X40.710 Y169.043 E2.10821
G1 X40.359 Y168.196 E2.13370
G1 X40.210 Y167.187 E2.16202
G1 X40.338 Y166.217 E2.18920
G1 X40.710 Y165.318 E2.21621
G1 X41.302 Y164.547 E2.24322
G1 X42.074 Y163.955 E2.27023
G1 X42.972 Y163.583 E2.29724
G1 X43.882 Y163.463 E2.32273
G1 X44.894 Y163.581 E2.35105
G1 X45.798 Y163.955 E2.37823
G1 X46.570 Y164.547 E2.40524
G1 X47.162 Y165.318 E2.43225
G1 X47.534 Y166.217 E2.45926
G1 X47.661 Y167.181 E2.48627
G1 X47.534 Y168.145 E2.51328
G1 X47.162 Y169.043 E2.54029
G1 X46.570 Y169.815 E2.56730
G1 X45.798 Y170.407 E2.59431
G1 X44.951 Y170.758 E2.61979
G1 X44.017 Y170.896 E2.64603
G1 X43.938 Y170.384 F7800.000
G1 F1800
G1 X43.107 Y170.274 E2.66574
G1 X42.335 Y169.954 E2.68540
G1 X41.672 Y169.445 E2.70506
G1 X41.163 Y168.782 E2.72471
G1 X40.862 Y168.057 E2.74317
G1 X40.733 Y167.183 E2.76394
G1 X40.843 Y166.352 E2.78365
G1 X41.163 Y165.580 E2.80331
G1 X41.672 Y164.916 E2.82296
G1 X42.335 Y164.408 E2.84262
G1 X43.107 Y164.088 E2.86228
G1 X43.886 Y163.985 E2.88074
G1 X44.763 Y164.087 E2.90151
G1 X45.537 Y164.408 E2.92121
G1 X46.201 Y164.916 E2.94087
G1 X46.709 Y165.580 E2.96053
G1 X47.029 Y166.352 E2.98019
G1 X47.138 Y167.181 E2.99984
G1 X47.029 Y168.010 E3.01950
G1 X46.709 Y168.782 E3.03916
G1 X46.201 Y169.445 E3.05882
G1 X45.537 Y169.954 E3.07847
G1 X44.812 Y170.255 E3.09694
G1 X44.012 Y170.373 E3.11594
G1 X43.938 Y170.384 F7800.000
G1 E1.11594 F2400.00000
G92 E0
G1 X-2.283 Y83.700 F7800.000
G1 E2.00000 F2400.00000
G1 F1800
G1 X-2.675 Y83.517 E2.01203
G1 X-3.111 Y83.239 E2.02636
G1 X-3.399 Y82.925 E2.03822
G1 X-3.596 Y82.546 E2.05007
G1 X-3.688 Y82.130 E2.06192
G1 X-3.670 Y81.703 E2.07377
G1 X-3.514 Y81.211 E2.08811
G1 X-3.357 Y80.874 E2.09843
G1 X-3.192 Y82.065 E2.13182
G1 X-2.786 Y83.044 E2.16128
G1 X-2.329 Y83.640 E2.18213
G1 X-1.838 Y83.358 F7800.000
G1 F1800
G1 X-2.296 Y82.762 E2.20301
G1 X-2.647 Y81.914 E2.22850
G1 X-2.795 Y80.905 E2.25682
G1 X-2.668 Y79.935 E2.28400
G1 X-2.317 Y79.088 E2.30948
G1 X-1.709 Y78.269 E2.33781
G1 X-0.932 Y77.673 E2.36499
G1 X-0.034 Y77.301 E2.39200
G1 X0.876 Y77.182 E2.41748
G1 X1.888 Y77.299 E2.44580
G1 X2.793 Y77.673 E2.47299
G1 X3.564 Y78.265 E2.50000
G1 X4.156 Y79.037 E2.52701
G1 X4.528 Y79.935 E2.55402
G1 X4.655 Y80.899 E2.58103
G1 X4.528 Y81.863 E2.60804
G1 X4.177 Y82.711 E2.63352
G1 X3.569 Y83.529 E2.66184
G1 X2.793 Y84.125 E2.68903
G1 X1.894 Y84.497 E2.71604
G1 X0.930 Y84.624 E2.74305
G1 X-0.034 Y84.497 E2.77006
G1 X-0.932 Y84.125 E2.79707
G1 X-1.704 Y83.533 E2.82408
G1 X-1.792 Y83.418 E2.82812
G1 X-1.427 Y83.043 F7800.000
G1 F1800
G1 X-1.843 Y82.500 E2.84419
G1 X-2.144 Y81.775 E2.86266
G1 X-2.272 Y80.901 E2.88342
G1 X-2.163 Y80.070 E2.90313
G1 X-1.863 Y79.345 E2.92159
G1 X-1.336 Y78.636 E2.94236
G1 X-0.671 Y78.126 E2.96207
G1 X0.101 Y77.806 E2.98172
G1 X0.880 Y77.703 E3.00018
G1 X1.757 Y77.805 E3.02095
G1 X2.531 Y78.126 E3.04066
G1 X3.195 Y78.635 E3.06032
G1 X3.703 Y79.298 E3.07997
G1 X4.023 Y80.070 E3.09963
G1 X4.133 Y80.899 E3.11929
G1 X4.023 Y81.728 E3.13895
G1 X3.723 Y82.453 E3.15741
G1 X3.196 Y83.162 E3.17817
G1 X2.531 Y83.672 E3.19788
G1 X1.759 Y83.992 E3.21754
G1 X0.930 Y84.102 E3.23720
G1 X0.101 Y83.992 E3.25686
G1 X-0.671 Y83.672 E3.27651
G1 X-1.334 Y83.164 E3.29617
G1 X-1.381 Y83.102 E3.29799
G1 X-1.917 Y83.144 F7800.000
G1 E1.29799 F2400.00000
G92 E0
G1 X5.493 Y70.350 F7800.000
G1 E2.00000 F2400.00000
G1 F1800
G1 X4.721 Y69.758 E2.02701
G1 X4.129 Y68.986 E2.05402
G1 X3.757 Y68.088 E2.08103
G1 X3.630 Y67.124 E2.10804
G1 X3.757 Y66.160 E2.13505
G1 X4.129 Y65.261 E2.16206
G1 X4.721 Y64.490 E2.18907
G1 X5.493 Y63.898 E2.21608
G1 X6.391 Y63.526 E2.24309
G1 X7.300 Y63.406 E2.26857
G1 X8.313 Y63.523 E2.29689
G1 X9.217 Y63.898 E2.32408
G1 X9.989 Y64.490 E2.35109
G1 X10.581 Y65.261 E2.37810
G1 X10.953 Y66.160 E2.40511
G1 X11.080 Y67.124 E2.43212
G1 X10.953 Y68.088 E2.45913
G1 X10.581 Y68.986 E2.48614
G1 X9.989 Y69.758 E2.51315
G1 X9.217 Y70.350 E2.54016
G1 X8.319 Y70.722 E2.56717
G1 X7.355 Y70.849 E2.59418
G1 X6.391 Y70.722 E2.62119
G1 X5.562 Y70.378 E2.64612
G1 X5.754 Y69.897 F7800.000
G1 F1800
G1 X5.091 Y69.388 E2.66577
G1 X4.582 Y68.725 E2.68543
G1 X4.262 Y67.953 E2.70509
G1 X4.153 Y67.124 E2.72475
G1 X4.262 Y66.295 E2.74440
G1 X4.582 Y65.523 E2.76406
G1 X5.091 Y64.859 E2.78372
G1 X5.754 Y64.350 E2.80338
G1 X6.526 Y64.031 E2.82303
G1 X7.305 Y63.928 E2.84149
G1 X8.182 Y64.030 E2.86226
G1 X8.956 Y64.350 E2.88197
G1 X9.619 Y64.859 E2.90163
G1 X10.128 Y65.523 E2.92129
G1 X10.448 Y66.295 E2.94094
G1 X10.557 Y67.124 E2.96060
G1 X10.448 Y67.953 E2.98026
G1 X10.128 Y68.725 E2.99991
G1 X9.619 Y69.388 E3.01957
G1 X8.956 Y69.897 E3.03923
G1 X8.184 Y70.217 E3.05889
G1 X7.355 Y70.326 E3.07854
G1 X6.526 Y70.217 E3.09820
G1 X5.823 Y69.926 E3.11610
G1 X5.754 Y69.897 F7800.000
G1 E1.11610 F2400.00000
G92 E0
G1 X28.300 Y13.131 F7800.000
G1 E2.00000 F2400.00000
G1 F1800
G1 X28.347 Y13.057 E2.00245
G1 X28.662 Y12.769 E2.01430
G1 X29.037 Y12.573 E2.02607
G1 X29.317 Y12.513 E2.03401
G1 X28.859 Y12.702 E2.04778
G1 X28.359 Y13.086 E2.06527
G1 E0.06527 F2400.00000
G92 E0
G1 X42.826 Y96.813 F7800.000
G1 E2.00000 F2400.00000
G1 F1800
G1 X43.877 Y96.674 E2.02946
G1 X45.037 Y96.809 E2.06189
G1 X46.081 Y97.241 E2.09330
G1 X46.970 Y97.923 E2.12441
G1 X47.652 Y98.812 E2.15552
G1 X48.081 Y99.847 E2.18664
G1 X48.228 Y100.967 E2.21803
G1 X48.080 Y102.069 E2.24893
G1 X47.652 Y103.102 E2.27998
G1 X46.970 Y103.991 E2.31110
G1 X46.081 Y104.673 E2.34221
G1 X45.047 Y105.102 E2.37332
G1 X43.936 Y105.248 E2.40444
G1 X42.826 Y105.102 E2.43555
G1 X41.791 Y104.673 E2.46666
G1 X40.902 Y103.991 E2.49778
G1 X40.220 Y103.102 E2.52889
G1 X39.792 Y102.068 E2.56000
G1 X39.644 Y100.947 E2.59140
G1 X39.792 Y99.845 E2.62229
G1 X40.220 Y98.812 E2.65335
G1 X40.902 Y97.923 E2.68447
G1 X41.791 Y97.241 E2.71558
G1 X42.756 Y96.841 E2.74461
G1 X42.972 Y97.359 F7800.000
G1 F1800
G1 X43.882 Y97.239 E2.77009
G1 X44.894 Y97.357 E2.79841
G1 X45.798 Y97.731 E2.82560
G1 X46.570 Y98.323 E2.85261
G1 X47.162 Y99.095 E2.87962
G1 X47.534 Y99.993 E2.90663
G1 X47.662 Y100.966 E2.93390
G1 X47.534 Y101.922 E2.96069
G1 X47.162 Y102.819 E2.98766
G1 X46.570 Y103.591 E3.01467
G1 X45.798 Y104.183 E3.04169
G1 X44.900 Y104.555 E3.06870
G1 X43.936 Y104.682 E3.09571
G1 X42.972 Y104.555 E3.12272
G1 X42.074 Y104.183 E3.14973
G1 X41.302 Y103.591 E3.17674
G1 X40.710 Y102.819 E3.20375
G1 X40.338 Y101.921 E3.23076
G1 X40.210 Y100.948 E3.25802
G1 X40.339 Y99.992 E3.28482
G1 X40.710 Y99.095 E3.31179
G1 X41.302 Y98.323 E3.33880
G1 X42.074 Y97.731 E3.36581
G1 X42.903 Y97.388 E3.39074
G1 X43.107 Y97.864 F7800.000
G1 F1800
G1 X43.886 Y97.761 E3.40920
G1 X44.763 Y97.863 E3.42997
G1 X45.537 Y98.184 E3.44968
G1 X46.201 Y98.693 E3.46933
G1 X46.709 Y99.356 E3.48899
G1 X47.029 Y100.128 E3.50865
G1 X47.140 Y100.966 E3.52851
G1 X47.029 Y101.786 E3.54798
G1 X46.709 Y102.558 E3.56763
G1 X46.201 Y103.222 E3.58729
G1 X45.537 Y103.730 E3.60694
G1 X44.765 Y104.050 E3.62660
G1 X43.936 Y104.159 E3.64626
G1 X43.107 Y104.050 E3.66592
G1 X42.335 Y103.730 E3.68557
G1 X41.672 Y103.222 E3.70523
G1 X41.163 Y102.558 E3.72489
G1 X40.843 Y101.786 E3.74455
G1 X40.733 Y100.949 E3.76440
G1 X40.843 Y100.128 E3.78388
G1 X41.163 Y99.356 E3.80352
G1 X41.672 Y98.693 E3.82318
G1 X42.335 Y98.184 E3.84284
G1 X43.038 Y97.893 E3.86073
G1 X43.237 Y97.381 F7800.000
G1 E1.86073 F2400.00000
G92 E0
G1 X0.905 Y85.186 F7800.000
G1 E2.00000 F2400.00000
G1 F1800
G1 X2.041 Y85.044 E2.03179
G1 X3.075 Y84.615 E2.06290
G1 X3.973 Y83.927 E2.09431
G1 X4.669 Y82.990 E2.12674
G1 X5.075 Y82.010 E2.15620
G1 X5.221 Y80.899 E2.18731
G1 X5.075 Y79.789 E2.21843
G1 X4.646 Y78.754 E2.24954
G1 X3.964 Y77.865 E2.28065
G1 X3.075 Y77.183 E2.31177
G1 X2.031 Y76.751 E2.34318
G1 X0.871 Y76.616 E2.37560
G1 X-0.180 Y76.755 E2.40506
G1 X-1.215 Y77.183 E2.43618
G1 X-1.870 Y77.686 E2.45911
G1 X3.068 Y67.099 E2.78361
G1 X3.211 Y68.234 E2.81540
G1 X3.639 Y69.269 E2.84652
G1 X4.321 Y70.158 E2.87763
G1 X5.210 Y70.840 E2.90874
G1 X6.244 Y71.268 E2.93986
G1 X7.355 Y71.414 E2.97097
G1 X8.465 Y71.268 E3.00208
G1 X9.500 Y70.840 E3.03320
G1 X10.389 Y70.158 E3.06431
G1 X11.071 Y69.269 E3.09542
G1 X11.499 Y68.234 E3.12654
G1 X11.646 Y67.124 E3.15765
G1 X11.499 Y66.013 E3.18876
G1 X11.071 Y64.978 E3.21988
G1 X10.389 Y64.090 E3.25099
G1 X9.500 Y63.408 E3.28210
G1 X8.456 Y62.975 E3.31351
G1 X7.296 Y62.841 E3.34594
G1 X6.244 Y62.979 E3.37540
G1 X5.210 Y63.408 E3.40651
G1 X4.555 Y63.911 E3.42945
G1 X26.717 Y16.393 E4.88588
G1 X26.860 Y17.529 E4.91767
G1 X27.288 Y18.564 E4.94878
G1 X27.977 Y19.461 E4.98019
G1 X28.914 Y20.157 E5.01262
G1 X29.894 Y20.563 E5.04208
G1 X31.004 Y20.709 E5.07319
G1 X32.115 Y20.563 E5.10431
G1 X33.149 Y20.134 E5.13542
G1 X34.038 Y19.452 E5.16653
G1 X34.720 Y18.564 E5.19765
G1 X35.148 Y17.529 E5.22876
G1 X35.295 Y16.418 E5.25987
G1 X35.148 Y15.308 E5.29098
G1 X34.929 Y14.777 E5.30693
G1 X115.138 Y52.187 E7.76539
G1 X114.279 Y52.543 E7.79120
G1 X113.391 Y53.224 E7.82232
G1 X112.709 Y54.113 E7.85343
G1 X112.280 Y55.148 E7.88455
G1 X112.134 Y56.258 E7.91566
G1 X112.280 Y57.369 E7.94677
G1 X112.709 Y58.404 E7.97788
G1 X113.391 Y59.292 E8.00900
G1 X114.279 Y59.974 E8.04011
G1 X115.314 Y60.403 E8.07122
G1 X116.425 Y60.549 E8.10234
G1 X117.535 Y60.403 E8.13345
G1 X118.570 Y59.974 E8.16456
G1 X119.459 Y59.292 E8.19568
G1 X120.140 Y58.404 E8.22679
G1 X120.569 Y57.369 E8.25790
G1 X120.715 Y56.258 E8.28902
G1 X120.569 Y55.148 E8.32013
G1 X120.140 Y54.113 E8.35124
G1 X119.459 Y53.224 E8.38236
G1 X119.312 Y53.112 E8.38747
G1 X196.911 Y53.112 E10.54298
G1 X196.765 Y53.224 E10.54810
G1 X196.083 Y54.113 E10.57921
G1 X195.654 Y55.148 E10.61032
G1 X195.507 Y56.269 E10.64174
G1 X195.677 Y57.424 E10.67416
G1 X196.083 Y58.404 E10.70362
G1 X196.765 Y59.292 E10.73474
G1 X197.653 Y59.974 E10.76585
G1 X198.688 Y60.403 E10.79696
G1 X199.809 Y60.550 E10.82837
